src/16/panel/indicator-sensors-cpu.svg

<svg xmlns="http://www.w3.org/2000/svg" width="16" height="16" version="1.1">
 <defs>
  <style id="current-color-scheme" type="text/css">
   .ColorScheme-Text { color:#dfdfdf; } .ColorScheme-Highlight { color:#5294e2; }
  </style>
 </defs>
 <path style="fill:currentColor" class="ColorScheme-Text" d="M 5.25,0 C 5.1115,0 5,0.1115 5,0.25 V 1.75 C 5,1.8885 5.1115,2 5.25,2 H 5.75 C 5.8885,2 6,1.8885 6,1.75 V 0.25 C 6,0.1115 5.8885,0 5.75,0 Z M 9.25,0 C 9.112,0 9,0.1115 9,0.25 V 1.75 C 9,1.8885 9.112,2 9.25,2 H 9.75 C 9.888,2 10,1.8885 10,1.75 V 0.25 C 10,0.1115 9.888,0 9.75,0 Z M 13.25,0 C 13.112,0 13,0.1115 13,0.25 V 1.75 C 13,1.8885 13.112,2 13.25,2 H 13.75 C 13.888,2 14,1.8885 14,1.75 V 0.25 C 14,0.1115 13.888,0 13.75,0 Z M 3.25,2 C 2.5575,2 2,2.5575 2,3.25 V 4.0254 C 2.5716,4.1408 3,4.6434 3,5.25 V 5.75 C 3,6.3566 2.5716,6.8592 2,6.9746 V 8.025 C 2.5716,8.141 3,8.643 3,9.25 V 9.75 C 3,10.357 2.5716,10.859 2,10.975 V 12.025 C 2.5716,12.141 3,12.643 3,13.25 V 13.75 C 3,14.349 2.582,14.845 2.0215,14.969 2.1249,15.556 2.6326,16 3.25,16 H 14.75 C 15.442,16 16,15.442 16,14.75 V 3.25 C 16,2.6414 15.569,2.1387 14.994,2.0254 14.98,2.5668 14.545,3 14,3 H 13 C 12.446,3 12,2.554 12,2 H 11 C 11,2.554 10.554,3 10,3 H 9 C 8.446,3 8,2.554 8,2 H 7 C 7,2.554 6.554,3 6,3 H 5 C 4.446,3 4,2.554 4,2 Z M 5,4 H 14 C 14.554,4 15,4.446 15,5 V 14 C 15,14.554 14.554,15 14,15 H 5 C 4.446,15 4,14.554 4,14 V 5 C 4,4.446 4.446,4 5,4 Z M 0.25,5 C 0.1115,5 0,5.1115 0,5.25 V 5.75 C 0,5.8885 0.1115,6 0.25,6 H 1.75 C 1.8885,6 2,5.8885 2,5.75 V 5.25 C 2,5.1115 1.8885,5 1.75,5 Z M 5.25,5 C 5.1115,5 5,5.1115 5,5.25 V 13.75 C 5,13.888 5.1115,14 5.25,14 H 13.75 C 13.888,14 14,13.888 14,13.75 V 5.25 C 14,5.1115 13.888,5 13.75,5 Z M 0.25,9 C 0.1115,9 0,9.112 0,9.25 V 9.75 C 0,9.888 0.1115,10 0.25,10 H 1.75 C 1.8885,10 2,9.888 2,9.75 V 9.25 C 2,9.112 1.8885,9 1.75,9 Z M 0.25,13 C 0.1115,13 0,13.112 0,13.25 V 13.75 C 0,13.888 0.1115,14 0.25,14 H 1.75 C 1.8885,14 2,13.888 2,13.75 V 13.25 C 2,13.112 1.8885,13 1.75,13 Z"/>
</svg>

<svg xmlns="http://www.w3.org/2000/svg" width="16" height="16"><defs><style id="current-color-scheme" type="text/css"></style></defs><path d="M5.25 0A.25.25 0 0 0 5 .25v1.5c0 .139.112.25.25.25h.5A.25.25 0 0 0 6 1.75V.25A.25.25 0 0 0 5.75 0zm4 0A.25.25 0 0 0 9 .25v1.5c0 .139.112.25.25.25h.5a.25.25 0 0 0 .25-.25V.25A.25.25 0 0 0 9.75 0zm4 0a.25.25 0 0 0-.25.25v1.5c0 .139.112.25.25.25h.5a.25.25 0 0 0 .25-.25V.25a.25.25 0 0 0-.25-.25zm-10 2C2.558 2 2 2.558 2 3.25v.775c.572.116 1 .618 1 1.225v.5c0 .607-.428 1.11-1 1.225v1.05c.572.116 1 .618 1 1.225v.5c0 .607-.428 1.109-1 1.225v1.05c.572.116 1 .618 1 1.225v.5c0 .599-.418 1.095-.978 1.219A1.245 1.245 0 0 0 3.25 16h11.5c.692 0 1.25-.558 1.25-1.25V3.25c0-.609-.431-1.111-1.006-1.225A.994.994 0 0 1 14 3h-1c-.554 0-1-.446-1-1h-1c0 .554-.446 1-1 1H9c-.554 0-1-.446-1-1H7c0 .554-.446 1-1 1H5c-.554 0-1-.446-1-1zM5 4h9c.554 0 1 .446 1 1v9c0 .554-.446 1-1 1H5c-.554 0-1-.446-1-1V5c0-.554.446-1 1-1zM.25 5a.25.25 0 0 0-.25.25v.5c0 .138.112.25.25.25h1.5A.25.25 0 0 0 2 5.75v-.5A.25.25 0 0 0 1.75 5zm5 0a.25.25 0 0 0-.25.25v8.5c0 .138.112.25.25.25h8.5a.25.25 0 0 0 .25-.25v-8.5a.25.25 0 0 0-.25-.25zm-5 4a.25.25 0 0 0-.25.25v.5c0 .138.112.25.25.25h1.5A.25.25 0 0 0 2 9.75v-.5A.25.25 0 0 0 1.75 9zm0 4a.25.25 0 0 0-.25.25v.5c0 .138.112.25.25.25h1.5a.25.25 0 0 0 .25-.25v-.5a.25.25 0 0 0-.25-.25z" fill="currentColor" color="#dfdfdf"/></svg>
